X:1
T:Bright Star
T:Bright Star
T:Copyright © CPDL
T:Copyright © CPDL
T:Copyright © CPDL
T:Copyright © CPDL
T:Copyright © CPDL
T:Copyright © CPDL
T:Copyright © CPDL
Z:Copyright © CPDL
%%score 1 { ( 2 3 ) ( 4 5 ) }
L:1/8
Q:1/4=80
M:6/8
K:Ab
V:1 treble nm="P1"
V:2 bass nm="P2"
V:3 bass 
V:4 bass nm="P3"
V:5 bass 
V:1
"^Editor: John Henry Fowler""^(  Revision:   7 - 30 - 2008  )""^Andante sostenuto.""^From \"English Lyrics\" -  Set 4 -  Number 6""^Words by John Keats - (1795-1821)""^Dedicated \"To Robert Benson\"" z6 | %1
w: |
"^Charles Hubert Hastings Parry""^( 1848 - 1918 )" z6 | z6 | z2 z z2!p! B |!<(! e6!<)! | fce dB>c | %6
w: ||Bright|Star~!|Would I were stead- fast as|
 A E2 z z/!<(! A/c/!<)!e/ | f2 c c/>=B/c>=d | e3 z2 e | e>=dc/=B/ d/c<ec/ | A3- A2!<(! A!<)! | %11
w: thou art Not in lone|splen- dour hung a- loft the|night, And|watch- ing, with e- ter- nal lids a-|\-~part, _ Like|
!>(! f2 =d B/c<!>)!FB/ | A/>B/ G2 z2 G | c2 c"^cresc."!<(! =B>GB/!<)!=d/ || %14
w: na- ture's pa- tient sleep- less|e- re- mite, The|mov- ing wa- ters at their|
[K:G] e2 e"^allargando"!<(! ^d>BB/!<)!!f!d/ | fF^d d^c>F |[Q:1/4=78] B3[Q:1/4=76] z2!p! B | %17
w: priest like task of pure ab-|lu- tion round earth's hu- man|shores, Or|
 B>AG/F/ AGB/G/ | d3- d2 G | B>AG/F/ A!<(!Ge/!<)!e/ | d3- d2!p!"^Tempo Primo"!<(! _e- || %21
w: gaz- ing on the new soft fall- en|mask _ Of|snow up- on the moun- tains and the|moors; _ No|
[K:Ab][Q:1/4=80] e3-!<)! e!<(!c!<)!e |!>(! f!>)! c2 z!<(! c!<)!f |!>(! !>!f>B!>)!B z3 | %24
w: _ _ Yet still|stead- fast, still un-|change- a- ble,|
 Bc>"^allargando"[Q:1/4=75]G B/G/!<(!A/c/!<)!g/>"^a tempo"f/ |[Q:1/4=80] e3- e2 e | %26
w: Pil- lowed up- on my fair love's ripe- ning|breast _ To|
!<(! =e/f<!<)!"^meno mosso"!>!g!>(!d/ c/d<!>)!Bc/ | A2!<(! A e2!<)! c | %28
w: feel for ev- er its soft fall and|swell, And wake for|
 e/!<(!c/d/f/!<)!a-!>(! a2!>)! e | (=e f2)!<(! f!<)!!>(!g>!>)!f | B2 c"^rit." d>d (3(f/e/)d/ | %31
w: ev- er in a sweet _ un-|rest, _ Still, still to|hear her ten- der ta- * ken|
 c3- c2 z | z z!mf! c"^a tempo" d2 =e |!>(! g!>)! f2 z3 | z6 | z2 z!p! z!<(! F!<)!A | %36
w: breath, _|And so live|ev- er,||Or else|
 !>!f3- !fermata!f2 e |[M:3/8] !>!A3- |[M:6/8] A2 z z3 | z6 | z6 |] %41
w: swoon _ to|death.|_|||
V:2
 ([E,A,E]/C/B,/A,/C/E/)[K:treble] ([A,CA]/E/D/C/E/A/) | ([CFc]/A/G/F/A/c/) ([FBf]/d/c/B/d/f/) | %2
 ([db]/[ca]/[Bg]/[Af]/[Ge]-) ([Ge]/[Af]/) ([Bd]>[Ge]) | (c>fB-) (B/!>(!c/d/B/G/!>)!_F/) | %4
 ([E,A,E]/C/B,/A,/C/E/)[K:treble] ([A,CA]/E/D/C/E/A/) | %5
 ([CFc]/A/G/F/A/c/) ([FBf]/d/c/B/)([Gd]/g/) | ([Aca]/e/d/c/e/a/) ([cec']/a/f/e/a/c'/) | %7
 ([cfc']/a/g/f/c/f/) (a/f/c/A/)(c/=d/) | ([Ge]/c/A/G/)(g/e/ =d/c/)(e/c/A/G/) | %9
 ([FA]/G/A/)(=d/A/=D/) ([EG]/^F/G/)(e/G/E/-) | ([EA]/E/=D/C/-)([CFc]/A/) (G/F/A/F/)([A,A]/E/) | %11
 ([F,A,=D]/C/A,/F,/A,/D/) ([A,F]/D/C/B,/[K:treble]F/B/) | [B,EGB]2 B, [B,EGB]2 [EG] | %13
 [EGc]2 [EG] [DF=B]2 [GB] ||[K:G] [EGBe]2 [GBe] [FB^d]2 [B,B] | [F^df]2 F (d^cF) | %16
 (^D/B,/B/^G/F/B/) (^d/^c/B/d/f/b/) | %17
 [ceb]/[ce]/[ce]/[cea]/[c_eg]/[cef]/ [Bda]/[Bd]/[Bd]/[Bdg]/[GBf]/[GBe]/ | %18
 [GAd]/[GA]/[FA]/[FAd]/[EGd]/[EG]/ [EGcd]/[EG]/[DFBd]/[DF]/[^CEB]/[CE]/ | %19
 [DFB]/[DF]/[DF]/[DFA]/[A,DG]/[A,DF]/ [B,DA]/[B,DA]/[B,DG]/[B,DG]/[G,B,F]/[G,B,E]/ | %20
 [G,A,D]/[G,A,D]/[F,A,D]/[F,A,D]/[E,G,D]/[E,G,D]/ [D,F,D]/[D,F,D]/[D,F,D]/[D,F,D]/[_D,G,_E]/[D,G,E]/ || %21
[K:Ab] ([C,A,E]/C/B,/A,/C/E/)[K:treble] ([A,CA]/E/D/C/E/A/) | %22
 ([CFc]/A/G/F/A/c/) ([FAf]/c/B/A/c/f/) | ([Bfb]/f/e/=d/)(f/d/ c/B/)(F/B/d/f/) | %24
 ([EGe]/B/A/G/B/G/) [B,EB]/[G,G]/[A,A]/!<(![Cc]/ [G_c=dg]/>!<)![Ff]/ | %25
 [E_cd]3/2 [DE][DE]/ z/ [DEB]E[Ede]/ | .[=Ed=e]/.[Ff]<!>![GBg][EGd]/ ([Fc]/[DFd]/) (B>c) | %27
 [CFA]2 [CFA] [EAe]2 [EAc] | [A,A]2 ([A,D]/F/) ([A,_GA]/[=A,=A]/[B,B]/[=B,=B]/[Cc]/[Ee]/) | %29
 ([=E_A=e] [Ff]2) [FBdf][GBdg]>[Ff] | ([B,B]2 [Cc]) [DAd]>A[FAf] | %31
 [CGBc] (3(z/ [B,C]/c/) (3(z/ [B,C]/B/) (3(z/ [C=E]/c/) (3(z/ [CE]/B/) (3(z/ [FB]/f/) | %32
 (3(z/ [=EB]/=e/) (3(z/ [AB]/a/) (3(z/ [GB]/g/) !>![ded']/(b/g/f/e/B/) | %33
 ([FAd]/c/A/!>(!G/F/C/)[K:bass] (A,/F,/D,/C,/!>)!A,,/F,,/) | [F,E]2 z [F,E]2 z | %35
!>(! [F,A,F]3- [F,A,F]2!>)! z | (!>![Ada]/f/d/A/F/D/-) D3[K:bass] |[M:3/8] z/ (A,/_G,/_F,/A,/_C/) | %38
[M:6/8][K:treble] (_F/_G/) !>!A2 !>!A3 | z2 z !>!A3- | !fermata!A2 z z2 z |] %41
V:3
 x3[K:treble] x3 | x6 | x6 | [GB]/[=EG]<[FA][FA]/ [_FG]2 z | x3[K:treble] x3 | x6 | x6 | x6 | x6 | %9
 x6 | x6 | x5[K:treble] x | x6 | x6 ||[K:G] x6 | x3 [EF]2 F/E/ | B2 x x3 | x6 | x6 | x6 | x6 || %21
[K:Ab] x3[K:treble] x3 | x6 | x6 | x6 | x6 | x3 x [=DF]/[=EG]/ z | x6 | (ED) x x3 | x A[=A=e] x3 | %30
 (FE) x x3 | x6 | x6 | x3[K:bass] x3 | (C=B,) x (CB,) x | C _B,2- B,2 x | %36
 x x x/ (c !fermata!B2)[K:bass] x/ |[M:3/8] x3 |[M:6/8][K:treble] [_F,D] z [F,D] z ([F,D]>[_G,E]) | %39
 [E,C]2 z z2 z | [E,C]2 x x2 x |] %41
V:4
!p! ([A,,,A,,]E,A,) (G,A,,G,) | (F,A,,E,)!<(! (D,A,,,!<)!C,) | %2
!>(! ([A,,,B,,]E,/F,/G,/!>)!A,/) (B,>A,G,/E,/) | %3
 (=E,/G,/F,/_E,/=D,/B,,/)"^dim." (_D,/!>(!C,/B,,/D,/_F,/!>)!G,/) |!p! x3 G,2 G, | F,2 F, B,,2 B,, | %6
 (E,A,,,)E,- (E,A,,)E, | ([C,A,]F,,C,)!<(! (A,F,,!<)!C,-) | ([C,G,](C,,)G,,- G,,)(C,,C,-) | %9
 ([C,A,](C,,)[C,-F,] [C,G,])(C,,C,- | [C,A,])(F,,E,,)!<(! (=D,,=D,)!<)![C,,F,,] | %11
!>(! ([B,,,B,,]F,,B,,) (F,B,,)!>)!B,,, | %12
 (E,,/B,,,/A,,,/G,,,/B,,,/E,,/ G,,/E,,/C,,/B,,,/E,,/G,,/-) | %13
 (G,,/E,,/=D,,/C,,/G,,/C,/) (=D,/=B,,/=A,,/G,,/D,/G,/-) || %14
[K:G]!<(! (G,/E,/C,/B,,/E,/"^allargando"G,/) (B,/F,/E,/^D,/B,,/!<)!^G,,/) | %15
!f! [F,,,F,,]/(B,,/^D,/"^dim."^C,/B,,/D,/) (F,/^G,/^A,/^C/)F,, |"^dim." [B,,,F,,]3 z2 G, | %17
!pp! [CEB]/[CE]/[CE]/[CEA]/[C_EG]/[CEF]/ [B,DA]/[B,D]/[B,D]/[B,DG]/[G,B,F]/[G,B,E]/ | %18
 [G,A,D]/[G,A,]/[F,A,]/[F,A,D]/[E,G,D]/[E,G,D]/ [E,G,]/[E,G,]/[D,F,]/[D,F,]/!<(![^C,G,]/[C,G,]/ | %19
 [=C,D,]/!<)!!>(![C,D,]/[C,D,]/[C,D,]/[C,D,]/!>)![C,D,]/ [B,,D,]/[B,,D,]/[B,,D,]/[B,,D,]/[G,,F,]/[G,,E,]/ | %20
 [G,,A,,]/[G,,A,,]/[F,,A,,]/[F,,A,,]/[E,,G,,]/[E,,G,,]/"^rit." [D,,F,,]/[D,,F,,]/[C,,E,,]/[C,,E,,]/!p![_B,,,_E,,]/[B,,,E,,]/ || %21
[K:Ab] ([A,,,E,,]A,,A,) (G,A,,C,) | (F,A,,F,) (C,A,,C,) | %23
 ([A,,B,,=D,]A,,,)B,,- [A,,B,,D,](A,,,B,,) | %24
 ([G,,E,]E,,)[D,,D,]"^allargando" [C,,C,]2"^colla voce." [A,,,A,,] | %25
"^a tempo" ([G,,,G,,]/B,,,/E,,/G,,/B,,/A,,/) (G,,/B,,/E,/G,/B,/A,/) | %26
!<(! G,/F,/!<)!"^meno mosso"=E,/_D,/C,/B,,/ (A,,/B,,/)(G,,/C,/)(C,,/C,/) | %27
 (F,,/C,/F,/G,/A,/F,/) (G,,/A,,/C,/E,/A,/A,,/) | (F,,/A,,/D,/A,/)F,, E,,2 A,, | %29
 (D,,/A,,/D,/A,,/)(C,,/F,,/) ([B,,,B,,]/D,/G,/B,,/)([A,,,A,,]/B,,/) | %30
 ([A,,,A,,]/B,,,/[G,,,G,,]/B,,,/E,,/G,,/) ([F,,,F,,]/A,,/D,/F,/A,/D/) | %31
!p! [=E,,,=E,,]"^accel.      e       cresc."([F,,,F,,][E,,,E,,]) ([A,,,A,,][G,,,G,,])([D,,D,] | %32
 [C,,C,])([F,,F,][=E,,=E,])"^a tempo" [B,,_E,G,D][K:treble]!>(! (B/A/G/!>)!=E/) | %33
"^dim." [A,,F,C]2 z z2 z | [D,,A,,]2 z [D,,A,,]2"^dim." z | %35
!>(! [=D,,A,,]3- [D,,A,,]2!>)!"^Lento" z | %36
!p!!>(! (E,,,/B,,,/E,,/B,,/!>)!E,/A,/-)"^colla voce" (A, !fermata!G,2) |[M:3/8]!p! z _C,2 | %38
[M:6/8] D,, z [D,,A,,] z [D,,A,,]2 | [A,,,A,,]2 z z3 |!pp! !fermata![A,,,A,,]2 z z2 z |] %41
V:5
 x3 G,2 x | F,2 E, D,2 C, | x3 x2 x | A,,3 A,,3 | (A,,A,,,A,) G,A,,G, | F,A,,F, B,,A,,,B,, | x6 | %7
 x6 | x6 | x6 | x6 | x6 | x6 | x6 ||[K:G] x6 | x3 F,2 x | x6 | x6 | x6 | x6 | x6 || %21
[K:Ab] x3 x A,,2 | x A,,2 x A,,2 | x6 | x6 | x6 | x6 | F,,2 x _G,,2 x | F,,2 x x3 | D,,2 x x3 | %30
 x6 | x6 | x4[K:treble] x2 | x6 | (!>!C,=B,,) x (!>!C,B,,) x | C, _B,,2- B,,2 x | E,,,2 x E,3 | %37
[M:3/8] x A,,_F,, |[M:6/8] x6 | x6 | x6 |] %41

